!!!OTL: 6. Dobranoch
!!!Genre:	Dobranoch
!!!Mode:	Minor
!!!Listening/dance:	listening
!!!One_Mode:	no
!!!Orig_tonic: C
**kern
*clefG2
*k[b-e-]
*g:
*M3/4
*>A
!LO:TX:a:i:t=G-freygish
4dd
=1!|:
2gg
4ddn
=2
2cc
4b-
=3
12ccL
12dd
12ccJ
4b-
4a
=4
2g
4d
=5
4g
4g
8gL
8aJ
=6
4b-
4b-
8b-L
8ccJ
=7
2dd
4ff#X
=8
2gg
4dd
=9
2gg
4dd
=10
2cc
4b-
=11
12ccL
12dd
12ccJ
4b-
4a
=12
2g
4d
=13
4.g
8a
8b-L
8ccJ
=14
4.dd
8b-
8ccL
8aJ
=15
4.b-
(8g
8aL
8f#XJ)
*>A1
=16
2g
4dd
*>A2
=17:|!
2g
*>bM
*B-:
!LO:TX:a:i:t=Bb-major
12fL
12en
12fJ
=18!|:
*>B
4b-
4b-
8b-L
8ccJ
=19
4dd
4dd
8ddL
8ee-J
=20
2ff
4gg
=21
2ff
4f
=22
2ff
8qff/
8ee-L
8ddJ
=23
4cc
4dd
16ee-LL
16ddJ
8ccJ
=24
2.b-
*>B1
=25
2B-
4f
*>B2
=26:|!
2B-
*>eM
*g:
!LO:TX:a:i:t=G-minor
4cc#X
=27!|:
*>C
4.dd
8cc#X
8qeen/
8ddL
8cc#J
=28
4.dd
8ccn
8b-L
8aJ
=29
[2.g
=30
2g]
4d
=31
4g
4g
8gL
8aJ
=32
4b-
4b-
8b-L
8ccJ
=33
2dd
12ff#XL
12dd
12ff#J
=34
2gg
4dd
=35
4.ddd
8ccc#X
8dddL
8ccc#J
=36
4.ddd
8cccn
8bb-L
8aaJ
=37
2.gg
=38
2gg
4dd
=39
4.gg
8aa
8bb-L
8cccJ
=40
4.ddd
8bb-
8cccL
8aaJ
=41
4.bb-
8gg
8aaL
8ff#XJ
=42
2.gg
=:|!
*-
